svgs/sharp-regular/turtle.svg

<svg xmlns="http://www.w3.org/2000/svg" viewBox="0 0 576 512"><!--! Font Awesome Pro 6.6.0 by @fontawesome - https://fontawesome.com License - https://fontawesome.com/license (Commercial License) Copyright 2024 Fonticons, Inc. --><path d="M336 240l0-32c0-70.7-57.3-128-128-128S80 137.3 80 208l0 32 256 0zm48 0l0 48-48 0L80 288l-48 0 0-48 0-32c0-97.2 78.8-176 176-176s176 78.8 176 176l0 32zm96 48c-5.5 0-10.9-.7-16-2l0 58 0 24-24 0-88 0 0 64 0 48-48 0-32 0-48 0 0-48 0-64-32 0 0 64 0 48-48 0-32 0-48 0 0-48 0-64-40 0L0 368l0-48 24 0 40 0 48 0 32 0 48 0 32 0 48 0 32 0 48 0 64 0 0-96 0-32 0-80 64 0c53 0 96 43 96 96l0 80-96 0zM272 368l0 64 32 0 0-64-32 0zm-160 0l0 64 32 0 0-64-32 0zM496 224a16 16 0 1 0 0-32 16 16 0 1 0 0 32z"/></svg>

<svg xmlns="http://www.w3.org/2000/svg" viewBox="0 0 576 512"><!--! Font Awesome Pro 6.4.0 by @fontawesome - https://fontawesome.com License - https://fontawesome.com/license (Commercial License) Copyright 2023 Fonticons, Inc. --><path d="M336 240V208c0-70.7-57.3-128-128-128S80 137.3 80 208v32H336zm48 0v48H336 80 32V240 208c0-97.2 78.8-176 176-176s176 78.8 176 176v32zm96 48c-5.5 0-10.9-.7-16-2v58 24H440 352v64 48H304 272 224V432 368H192v64 48H144 112 64V432 368H24 0V320H24 64h48 32 48 32 48 32 48 64V224 192 112h64c53 0 96 43 96 96v80H480zM272 368v64h32V368H272zm-160 0v64h32V368H112zM496 224a16 16 0 1 0 0-32 16 16 0 1 0 0 32z"/></svg>
